X:1
T:The Flemings of Torbay
M:4/4
L:1/8
K:C
 G2| C3 DE G2- E| F _B2- G A2G-E| C F2- D C3 =B,| C6|G-A| _B A2 G- G2 d2|\
 c3 _BA G2- A| _B G3 c2 E2| F6|G-A| _B A2 G- G2 d2| c3 _BA G2- A| _B G2 c- c2 E2|\
 F6| G3/2 G/2| C3 DE G2- E| F _B2- G A2G-E| C F2- D C3 =B,| C4 z2||\
